X: 5172
T: Bring Her To The Shelter
R: reel
M: 4/4
K: Aminor
EAAB c2BA|GBEB GEED|EAAB cBce|1 dBGA BAAG:|2 dBGB BAAB||
|:cdef e2dc|Bcde dBGB|1 cdef edcB|cBAG EAAB:|2 cBce dBGB|cBAG EAA2||

